X:35
T:Editor's thanks to Mr. Nathaniel Gow, The
T:Mile taing an Ughdair
R:Strathspey
S:Simon Fraser Collection
N:No.230
O:Scottish
M:C
L:1/8
K:E_
A,|(G,/A,/B,) B,<G E>C B,2|(G,/A,/B,) B,<B GF/E/ G<B|(G,/A,/B,) B,<G E>C
 B,2|1
G<E A>G F>B,DF:|2 G<E A>G F<B,Da||g>e g<b e<e g2|e>g B<b g>e g<b|
g>e g<b e<e g>f|g<e a>g f>B d<f|g>e g<b e<e g2|e>g B<b g>e e<b|
g/a/b a>f g>e f<d|e/d/c/B/ A/G/F/E/ F>BD||

